; generated by PrusaSlicer 2.7.0+win64 on 2023-12-26 at 21:45:47 UTC


;
;
; 

; external perimeters extrusion width = 0.45mm
; perimeters extrusion width = 0.45mm
; infill extrusion width = 0.45mm
; solid infill extrusion width = 0.45mm
; top infill extrusion width = 0.40mm
; support material extrusion width = 0.40mm
; first layer extrusion width = 0.60mm

M73 P0 R30
;TYPE:Custom
M104 S215 ; set final nozzle temp

M190 S60 ; set and wait for bed temp to stabilize

M109 S215 ; wait for nozzle temp to stabilize
G28 ; h1ome all axes
 M117 ;Purge extruder
 G92 E0 ; reset extruder
 G1 Z1.0 F3000 ; move z up little to prevent scratching of surface
 G1 X2 Y20 Z0.3 F5000.0 ; move to start-line position
 G1 X2 Y175.0 Z0.3 F1500.0 E15 ; draw 1st line
 G1 X2 Y175.0 Z0.4 F5000.0 ; move to side a little
 G1 X2 Y20 Z0.4 F1500.0 E30 ; draw 2nd line
 G92 E0 ; reset extruder
 G1 Z1.0 F3000 ; move z up little to prevent scratching of surface
G21 ; set units to millimeters
G90 ; use absolute coordinates
M83 ; use relative distances for extrusion
; Filament gcode
M107
;LAYER_CHANGE
;Z:0.3
;HEIGHT:0.3
G1 E-1 F5400
G1 Z.3 F12000
G1 X45.272 Y37.291
G1 Z.3
G1 E1 F5400
;TYPE:Skirt/Brim
;WIDTH:0.6
G1 F1800
G1 X50.986 Y31.577 E.53984
G1 X52.853 Y30.272 E.15217
G1 X55.607 Y29.663 E.18843
G1 X67.078 Y29.663 E.76632
G1 X69.321 Y30.06 E.15217
G1 X71.7 Y31.577 E.18849
G1 X77.414 Y37.291 E.53984
G1 X78.23 Y38.288 E.08607
G1 X84.352 Y47.561 E.74231
G1 X90.066 Y58.99 E.85363
G1 X90.756 Y61.912 E.20057
G1 X90.756 Y79.098 E1.14812
G1 X90.36 Y81.341 E.15216
G1 X88.842 Y83.719 E.18847
G1 X85.985 Y86.576 E.26992
G1 X84.118 Y87.881 E.15217
G1 X81.364 Y88.49 E.18843
G1 X41.322 Y88.49 E2.67502
G1 X39.079 Y88.093 E.15217
G1 X36.701 Y86.576 E.18844
G1 X33.843 Y83.719 E.26997
G1 X32.538 Y81.852 E.15217
G1 X31.929 Y79.098 E.18843
M73 P1 R30
G1 X31.929 Y61.912 E1.14812
G1 X32.619 Y58.99 E.20057
G1 X38.333 Y47.561 E.85363
G1 X44.455 Y38.288 E.74231
G1 X45.234 Y37.338 E.08207
G1 E-.7 F5400
;WIPE_START
G1 F9600
G1 X45.272 Y37.291 E-.0323
G1 X45.626 Y36.937 E-.2677
;WIPE_END
G1 X67.078 Y39.056 F12000
G1 E1 F5400
;TYPE:Support material
G1 F1800
G1 X69.935 Y39.056 E.19086
G1 X69.935 Y41.913 E.19086
G1 X72.793 Y41.913 E.19093
G1 X72.793 Y47.627 E.38173
G1 X75.65 Y47.627 E.19086
G1 X75.65 Y50.484 E.19086
G1 X78.507 Y50.484 E.19086
G1 X78.507 Y56.198 E.38173
G1 X81.364 Y56.198 E.19086
G1 X81.364 Y61.912 E.38173
G1 X84.221 Y61.912 E.19086
G1 X84.221 Y79.098 E1.14812
G1 X81.364 Y79.098 E.19086
G1 X81.364 Y81.955 E.19086
G1 X41.322 Y81.955 E2.67502
G1 X41.322 Y79.098 E.19086
G1 X38.465 Y79.098 E.19086
G1 X38.465 Y61.912 E1.14812
G1 X41.322 Y61.912 E.19086
G1 X41.322 Y56.198 E.38173
G1 X44.179 Y56.198 E.19086
G1 X44.179 Y50.484 E.38173
G1 X47.036 Y50.484 E.19086
G1 X47.036 Y47.627 E.19086
G1 X49.893 Y47.627 E.19086
G1 X49.893 Y41.913 E.38173
G1 X52.75 Y41.913 E.19086
G1 X52.75 Y39.056 E.19086
G1 X55.607 Y39.056 E.19086
G1 X55.607 Y36.199 E.19086
G1 X67.078 Y36.199 E.76632
G1 X67.078 Y38.975 E.18545
G1 E-.7 F5400
;WIPE_START
G1 F9600
G1 X67.078 Y38.414 E-.3
;WIPE_END
G1 X47.688 Y67.037 F12000
G1 E1 F5400
G1 F1800
G1 X48.276 Y67.047 E.03929
G1 X49.256 Y67.274 E.0672
G1 X50.232 Y67.837 E.07527
G1 X50.63 Y68.21 E.03644
G1 X51.221 Y69.077 E.0701
G1 X51.553 Y70.154 E.07529
G1 X51.591 Y70.698 E.03643
G1 X51.435 Y71.736 E.07012
G1 X50.919 Y72.784 E.07804
G1 X50.232 Y73.52 E.06726
G1 X49.749 Y73.849 E.03904
G1 X48.772 Y74.233 E.07013
G1 X48.233 Y74.317 E.03644
G1 X47.069 Y74.22 E.07803
G1 X46.133 Y73.849 E.06726
G1 X45.65 Y73.52 E.03904
G1 X45.252 Y73.147 E.03644
G1 X44.661 Y72.28 E.0701
G1 X44.329 Y71.203 E.07529
G1 X44.291 Y70.659 E.03643
G1 X44.447 Y69.621 E.07012
G1 X44.936 Y68.606 E.07527
G1 X45.31 Y68.152 E.0393
G1 X46.099 Y67.527 E.06724
G1 X46.626 Y67.274 E.03905
G1 X47.608 Y67.046 E.06735
G1 E-.7 F5400
;WIPE_START
G1 F9600
G1 X47.061 Y67.173 E-.3
;WIPE_END
G1 X74.491 Y67.037 F12000
G1 E1 F5400
G1 F1800
G1 X75.079 Y67.047 E.03929
G1 X76.06 Y67.274 E.06727
G1 X77.036 Y67.837 E.07527
G1 X77.434 Y68.21 E.03644
G1 X78.025 Y69.077 E.0701
G1 X78.357 Y70.154 E.07529
G1 X78.357 Y71.203 E.07008
G1 X78.227 Y71.773 E.03906
G1 X77.771 Y72.718 E.0701
G1 X77.434 Y73.147 E.03644
G1 X76.553 Y73.849 E.07526
G1 X75.576 Y74.233 E.07013
G1 X75.037 Y74.317 E.03644
G1 X73.872 Y74.22 E.0781
G1 X72.937 Y73.849 E.0672
G1 X72.453 Y73.52 E.0391
G1 X72.056 Y73.147 E.03639
G1 X71.465 Y72.28 E.0701
G1 X71.132 Y71.203 E.07531
G1 X71.132 Y70.154 E.07008
G1 X71.251 Y69.621 E.03648
G1 X71.74 Y68.606 E.07527
G1 X72.114 Y68.152 E.0393
G1 X72.903 Y67.527 E.06724
G1 X73.429 Y67.274 E.03899
G1 X74.412 Y67.046 E.06741
G1 E-.7 F5400
;WIPE_START
G1 F9600
G1 X73.865 Y67.173 E-.3
;WIPE_END
G1 X55.65 Y59.098 F12000
G1 E1 F5400
G1 F1800
G1 X67.036 Y59.098 E.76065
G1 X67.036 Y61.955 E.19086
G1 X69.893 Y61.955 E.19086
G1 X69.893 Y67.627 E.37892
G1 X52.793 Y67.627 E1.14237
G1 X52.793 Y61.955 E.37892
G1 X55.65 Y61.955 E.19086
G1 X55.65 Y59.178 E.18552
G1 E-.7 F5400
;WIPE_START
G1 F9600
G1 X55.65 Y59.739 E-.3
;WIPE_END
G1 X61.323 Y43.816 F12000
G1 E1 F5400
G1 F1800
G1 X62.395 Y43.971 E.07236
G1 X63.374 Y44.433 E.07232
G1 X64.174 Y45.162 E.07231
G1 X64.74 Y46.13 E.07491
G1 X64.982 Y47.185 E.07231
G1 X64.904 Y48.265 E.07234
G1 X64.513 Y49.275 E.07235
G1 X63.81 Y50.166 E.07582
G1 X63.607 Y50.256 E.01483
G1 X59.079 Y50.256 E.30249
G1 X58.875 Y50.166 E.0149
G1 X58.452 Y49.694 E.04234
G1 X57.925 Y48.748 E.07234
G1 X57.702 Y47.728 E.06975
G1 X57.707 Y47.146 E.03888
G1 X57.946 Y46.13 E.06973
G1 X58.201 Y45.607 E.03887
G1 X58.856 Y44.794 E.06975
G1 X59.312 Y44.433 E.03885
G1 X60.254 Y43.982 E.06977
G1 X61.243 Y43.822 E.06693
G1 E-.7 F5400
;WIPE_START
G1 F9600
G1 X60.689 Y43.912 E-.3
;WIPE_END
G1 X83.363 Y78.857 F12000
G1 E1 F5400
M73 P1 R29
G1 F1800
G1 X83.363 Y62.394 E1.09982
G1 X82.768 Y62.394 E.03975
G1 X82.768 Y78.616 E1.08372
G1 X82.172 Y78.616 E.03982
G1 X82.172 Y62.394 E1.08372
G1 X81.577 Y62.394 E.03975
G1 X81.577 Y78.616 E1.08372
G1 X80.982 Y78.616 E.03975
G1 X80.982 Y62.394 E1.08372
G1 X80.882 Y62.394 E.00668
G1 X80.882 Y56.68 E.38173
G1 X80.387 Y56.68 E.03307
G1 X80.387 Y81.473 E1.65631
G1 X79.792 Y81.473 E.03975
G1 X79.792 Y56.68 E1.65631
G1 X79.197 Y56.68 E.03975
M73 P2 R29
G1 X79.197 Y81.473 E1.65631
G1 X78.602 Y81.473 E.03975
G1 X78.602 Y72.137 E.6237
G1 X78.007 Y73.201 E.08144
G1 X78.007 Y81.473 E.55261
G1 X77.411 Y81.473 E.03982
G1 X77.411 Y73.829 E.51066
G1 X76.816 Y74.254 E.04885
G1 X76.816 Y81.473 E.48227
G1 X76.221 Y81.473 E.03975
G1 X76.221 Y74.538 E.4633
G1 X75.626 Y74.716 E.04149
G1 X75.626 Y81.473 E.4514
G1 X75.031 Y81.473 E.03975
G1 X75.031 Y74.801 E.44573
G1 X74.436 Y74.799 E.03975
G1 X74.436 Y81.473 E.44586
G1 X73.841 Y81.473 E.03975
G1 X73.841 Y74.71 E.45181
G1 X73.245 Y74.529 E.04161
G1 X73.245 Y81.473 E.4639
G1 X72.65 Y81.473 E.03975
G1 X72.65 Y74.241 E.48314
G1 X72.055 Y73.808 E.04916
G1 X72.055 Y81.473 E.51206
G1 X71.46 Y81.473 E.03975
G1 X71.46 Y73.173 E.55448
G1 X71.038 Y72.505 E.05279
G1 X70.865 Y72.08 E.03065
G1 X70.865 Y81.473 E.6275
G1 X70.27 Y81.473 E.03975
G1 X70.27 Y42.395 E2.61062
G1 X70.865 Y42.395 E.03975
G1 X70.865 Y69.277 E1.79586
G1 X71.038 Y68.852 E.03065
G1 X71.46 Y68.184 E.05279
G1 X71.46 Y42.395 E1.72284
G1 X72.055 Y42.395 E.03975
G1 X72.055 Y67.549 E1.68042
G1 X72.65 Y67.116 E.04916
G1 X72.65 Y48.109 E1.26977
G1 X73.245 Y48.109 E.03975
G1 X73.245 Y66.828 E1.25053
G1 X73.841 Y66.646 E.04163
G1 X73.841 Y48.109 E1.23837
G1 X74.436 Y48.109 E.03975
G1 X74.436 Y66.558 E1.23249
G1 X75.031 Y66.556 E.03975
G1 X75.031 Y48.109 E1.23236
G1 X75.168 Y48.109 E.00915
G1 X75.168 Y50.966 E.19086
G1 X75.626 Y50.966 E.0306
G1 X75.626 Y66.641 E1.04717
G1 X76.221 Y66.819 E.04149
G1 X76.221 Y50.966 E1.05907
G1 X76.816 Y50.966 E.03975
G1 X76.816 Y67.103 E1.07804
G1 X77.411 Y67.528 E.04885
G1 X77.411 Y50.966 E1.10643
G1 X78.007 Y50.966 E.03982
G1 X78.007 Y68.156 E1.14839
G1 X78.602 Y69.22 E.08144
G1 X78.602 Y56.439 E.85384
G1 E-.7 F5400
;WIPE_START
G1 F9600
G1 X78.602 Y57 E-.3
;WIPE_END
G1 X69.675 Y81.714 F12000
G1 E1 F5400
G1 F1800
G1 X69.675 Y68.109 E.90889
G1 X69.08 Y68.109 E.03975
G1 X69.08 Y81.473 E.89279
G1 X68.484 Y81.473 E.03982
G1 X68.484 Y68.109 E.89279
G1 X67.889 Y68.109 E.03975
G1 X67.889 Y81.473 E.89279
G1 X67.294 Y81.473 E.03975
G1 X67.294 Y68.109 E.89279
G1 X66.699 Y68.109 E.03975
G1 X66.699 Y81.473 E.89279
G1 X66.104 Y81.473 E.03975
M73 P3 R29
G1 X66.104 Y68.109 E.89279
G1 X65.509 Y68.109 E.03975
G1 X65.509 Y81.473 E.89279
G1 X64.914 Y81.473 E.03975
G1 X64.914 Y68.109 E.89279
G1 X64.318 Y68.109 E.03982
G1 X64.318 Y81.473 E.89279
G1 X63.723 Y81.473 E.03975
G1 X63.723 Y68.109 E.89279
G1 X63.128 Y68.109 E.03975
G1 X63.128 Y81.473 E.89279
G1 X62.533 Y81.473 E.03975
G1 X62.533 Y68.109 E.89279
G1 X61.938 Y68.109 E.03975
G1 X61.938 Y81.473 E.89279
G1 X61.343 Y81.473 E.03975
G1 X61.343 Y68.109 E.89279
G1 X60.748 Y68.109 E.03975
G1 X60.748 Y81.473 E.89279
G1 X60.153 Y81.473 E.03975
G1 X60.153 Y68.109 E.89279
G1 X59.557 Y68.109 E.03982
G1 X59.557 Y81.473 E.89279
G1 X58.962 Y81.473 E.03975
G1 X58.962 Y68.109 E.89279
G1 X58.367 Y68.109 E.03975
G1 X58.367 Y81.473 E.89279
G1 X57.772 Y81.473 E.03975
G1 X57.772 Y68.109 E.89279
G1 X57.177 Y68.109 E.03975
G1 X57.177 Y81.473 E.89279
G1 X56.582 Y81.473 E.03975
G1 X56.582 Y68.109 E.89279
G1 X55.987 Y68.109 E.03975
G1 X55.987 Y81.473 E.89279
G1 X55.392 Y81.473 E.03975
G1 X55.392 Y68.109 E.89279
G1 X54.796 Y68.109 E.03982
G1 X54.796 Y81.473 E.89279
G1 X54.201 Y81.473 E.03975
G1 X54.201 Y68.109 E.89279
G1 X53.606 Y68.109 E.03975
G1 X53.606 Y81.473 E.89279
G1 X53.011 Y81.473 E.03975
G1 X53.011 Y67.868 E.90889
G1 E-.7 F5400
;WIPE_START
G1 F9600
G1 X53.011 Y68.429 E-.3
;WIPE_END
G1 X69.675 Y61.714 F12000
G1 E1 F5400
G1 F1800
G1 X69.675 Y42.395 E1.29061
G1 X69.453 Y42.395 E.01483
G1 X69.453 Y39.538 E.19086
G1 X69.08 Y39.538 E.02492
G1 X69.08 Y61.473 E1.46538
G1 X68.484 Y61.473 E.03982
G1 X68.484 Y39.538 E1.46538
G1 X67.889 Y39.538 E.03975
G1 X67.889 Y61.473 E1.46538
G1 X67.518 Y61.473 E.02478
G1 X67.518 Y58.616 E.19086
G1 X67.294 Y58.616 E.01496
G1 X67.294 Y39.538 E1.27451
G1 X66.699 Y39.538 E.03975
G1 X66.699 Y58.616 E1.27451
G1 X66.104 Y58.616 E.03975
G1 X66.104 Y36.681 E1.46538
G1 X65.509 Y36.681 E.03975
G1 X65.509 Y58.616 E1.46538
G1 X64.914 Y58.616 E.03975
G1 X64.914 Y49.543 E.60613
G1 X64.318 Y50.323 E.06558
G1 X64.318 Y58.616 E.55402
G1 X63.723 Y58.616 E.03975
G1 X63.723 Y50.732 E.52669
G1 X63.128 Y50.738 E.03975
G1 X63.128 Y58.616 E.52629
G1 X62.533 Y58.616 E.03975
M73 P4 R29
G1 X62.533 Y50.738 E.52629
G1 X61.938 Y50.738 E.03975
G1 X61.938 Y58.616 E.52629
G1 X61.343 Y58.616 E.03975
G1 X61.343 Y50.738 E.52629
G1 X60.748 Y50.738 E.03975
G1 X60.748 Y58.616 E.52629
G1 X60.153 Y58.616 E.03975
G1 X60.153 Y50.738 E.52629
G1 X59.557 Y50.738 E.03982
G1 X59.557 Y58.616 E.52629
G1 X58.962 Y58.616 E.03975
G1 X58.962 Y50.732 E.52669
G1 X58.587 Y50.565 E.02742
G1 X58.367 Y50.323 E.02185
G1 X58.367 Y58.616 E.55402
G1 X57.772 Y58.616 E.03975
G1 X57.772 Y49.543 E.60613
G1 X57.468 Y48.903 E.04733
G1 X57.217 Y47.703 E.0819
G1 X57.329 Y46.483 E.08185
G1 X57.772 Y45.387 E.07897
G1 X57.772 Y36.681 E.58161
G1 X58.367 Y36.681 E.03975
G1 X58.367 Y44.611 E.52977
G1 X58.962 Y44.091 E.05279
G1 X58.962 Y36.681 E.49503
G1 X59.557 Y36.681 E.03975
G1 X59.557 Y43.74 E.47158
G1 X60.153 Y43.509 E.0427
G1 X60.153 Y36.681 E.45615
G1 X60.748 Y36.681 E.03975
G1 X60.748 Y43.377 E.44733
G1 X61.343 Y43.334 E.03985
G1 X61.343 Y36.681 E.44446
G1 X61.938 Y36.681 E.03975
G1 X61.938 Y43.377 E.44733
G1 X62.533 Y43.509 E.04072
G1 X62.533 Y36.681 E.45615
G1 X63.128 Y36.681 E.03975
G1 X63.128 Y43.74 E.47158
G1 X63.723 Y44.091 E.04615
G1 X63.723 Y36.681 E.49503
G1 X64.318 Y36.681 E.03975
G1 X64.318 Y44.611 E.52977
G1 X64.914 Y45.387 E.06537
G1 X64.914 Y36.44 E.59771
G1 E-.7 F5400
;WIPE_START
G1 F9600
G1 X64.914 Y37.001 E-.3
;WIPE_END
G1 X57.177 Y58.857 F12000
G1 E1 F5400
G1 F1800
G1 X57.177 Y36.681 E1.48148
G1 X56.582 Y36.681 E.03975
G1 X56.582 Y58.616 E1.46538
G1 X55.987 Y58.616 E.03975
G1 X55.987 Y39.538 E1.27451
G1 X55.392 Y39.538 E.03975
G1 X55.392 Y58.616 E1.27451
G1 X55.168 Y58.616 E.01496
G1 X55.168 Y61.473 E.19086
G1 X54.796 Y61.473 E.02485
G1 X54.796 Y39.538 E1.46538
G1 X54.201 Y39.538 E.03975
G1 X54.201 Y61.473 E1.46538
G1 X53.606 Y61.473 E.03975
G1 X53.606 Y39.538 E1.46538
G1 X53.232 Y39.538 E.02499
G1 X53.232 Y42.395 E.19086
G1 X53.011 Y42.395 E.01476
G1 X53.011 Y61.714 E1.29061
G1 X52.416 Y81.714 F12000
G1 F1800
G1 X52.416 Y42.395 E2.62672
G1 X51.821 Y42.395 E.03975
G1 X51.821 Y69.277 E1.79586
G1 X51.648 Y68.852 E.03065
G1 X51.226 Y68.184 E.05279
G1 X51.226 Y42.395 E1.72284
G1 X50.63 Y42.395 E.03982
G1 X50.63 Y67.549 E1.68042
G1 X50.035 Y67.116 E.04916
G1 X50.035 Y48.109 E1.26977
G1 X49.44 Y48.109 E.03975
G1 X49.44 Y66.828 E1.25053
G1 X48.845 Y66.646 E.04157
G1 X48.845 Y48.109 E1.23837
G1 X48.25 Y48.109 E.03975
M73 P5 R28
G1 X48.25 Y66.558 E1.23249
G1 X47.655 Y66.556 E.03975
G1 X47.655 Y48.109 E1.23236
G1 X47.518 Y48.109 E.00915
G1 X47.518 Y50.966 E.19086
G1 X47.06 Y50.966 E.0306
G1 X47.06 Y66.641 E1.04717
G1 X46.465 Y66.819 E.04149
G1 X46.465 Y50.966 E1.05907
G1 X45.869 Y50.966 E.03982
G1 X45.869 Y67.103 E1.07804
G1 X45.274 Y67.528 E.04885
G1 X45.274 Y50.966 E1.10643
G1 X44.679 Y50.966 E.03975
G1 X44.679 Y68.156 E1.14839
G1 X44.084 Y69.22 E.08144
G1 X44.084 Y56.68 E.83774
G1 X43.489 Y56.68 E.03975
G1 X43.489 Y81.473 E1.65631
G1 X44.084 Y81.473 E.03975
G1 X44.084 Y72.137 E.6237
G1 X44.679 Y73.201 E.08144
G1 X44.679 Y81.473 E.55261
G1 X45.274 Y81.473 E.03975
G1 X45.274 Y73.829 E.51066
G1 X45.869 Y74.254 E.04885
G1 X45.869 Y81.473 E.48227
G1 X46.465 Y81.473 E.03982
G1 X46.465 Y74.538 E.4633
G1 X47.06 Y74.716 E.04149
G1 X47.06 Y81.473 E.4514
G1 X47.655 Y81.473 E.03975
G1 X47.655 Y74.801 E.44573
G1 X48.25 Y74.799 E.03975
G1 X48.25 Y81.473 E.44586
G1 X48.845 Y81.473 E.03975
G1 X48.845 Y74.71 E.45181
G1 X49.44 Y74.529 E.04155
G1 X49.44 Y81.473 E.4639
G1 X50.035 Y81.473 E.03975
G1 X50.035 Y74.241 E.48314
G1 X50.63 Y73.808 E.04916
G1 X50.63 Y81.473 E.51206
G1 X51.226 Y81.473 E.03982
G1 X51.226 Y73.173 E.55448
G1 X51.648 Y72.505 E.05279
G1 X51.821 Y72.08 E.03065
G1 X51.821 Y81.714 E.6436
G1 X42.894 Y81.714 F12000
G1 F1800
G1 X42.894 Y56.68 E1.67241
G1 X42.299 Y56.68 E.03975
G1 X42.299 Y81.473 E1.65631
G1 X41.804 Y81.473 E.03307
G1 X41.804 Y78.616 E.19086
G1 X41.703 Y78.616 E.00675
G1 X41.703 Y62.394 E1.08372
G1 X41.108 Y62.394 E.03975
G1 X41.108 Y78.616 E1.08372
G1 X40.513 Y78.616 E.03975
G1 X40.513 Y62.394 E1.08372
G1 X39.918 Y62.394 E.03975
G1 X39.918 Y78.616 E1.08372
G1 X39.323 Y78.616 E.03975
G1 X39.323 Y62.153 E1.09982
G1 E-.7 F5400
;WIPE_START
G1 F9600
G1 X39.323 Y62.714 E-.3
;WIPE_END
G1 X73.258 Y69.785 F12000
G1 E1 F5400
;TYPE:Perimeter
;WIDTH:0.6
G1 F1800
G1 X73.462 Y69.488 E.02407
G1 X73.87 Y69.163 E.03485
G1 X74.355 Y68.972 E.03482
G1 X74.894 Y68.936 E.03609
G1 X75.384 Y69.05 E.03361
G1 X75.836 Y69.31 E.03484
G1 X76.19 Y69.693 E.03484
G1 X76.417 Y70.163 E.03487
G1 X76.485 Y70.547 E.02605
G1 X76.494 Y70.678 E.00877
G1 X76.418 Y71.19 E.03458
G1 X76.19 Y71.664 E.03514
G1 X75.836 Y72.047 E.03484
G1 X75.384 Y72.307 E.03484
G1 X74.875 Y72.424 E.03489
G1 X74.355 Y72.385 E.03484
G1 X73.854 Y72.184 E.03606
G1 X73.462 Y71.869 E.0336
G1 X73.168 Y71.438 E.03485
G1 X73.013 Y70.921 E.03606
G1 X73.014 Y70.418 E.0336
G1 X73.177 Y69.903 E.03609
G1 X73.224 Y69.835 E.00552
G1 X72.845 Y69.409 F12000
G1 F1800
G1 X72.855 Y69.39 E.00143
G1 X73.194 Y69.006 E.03422
G1 X73.601 Y68.698 E.0341
G1 X74.078 Y68.498 E.03455
G1 X74.571 Y68.398 E.03361
G1 X75.091 Y68.424 E.03478
G1 X75.58 Y68.55 E.03373
G1 X76.03 Y68.794 E.0342
G1 X76.421 Y69.123 E.03414
G1 X76.72 Y69.539 E.03422
G1 X76.93 Y70.004 E.03409
G1 X77.019 Y70.507 E.03413
G1 X77.006 Y71.019 E.03422
G1 X76.862 Y71.521 E.03489
G1 X76.634 Y71.967 E.03346
G1 X76.295 Y72.351 E.03422
G1 X75.888 Y72.659 E.0341
G1 X75.416 Y72.858 E.03422
G1 X74.915 Y72.959 E.03414
G1 X74.399 Y72.933 E.03452
G1 X73.912 Y72.808 E.03359
G1 X73.455 Y72.559 E.03477
G1 X73.068 Y72.234 E.03376
G1 X72.767 Y71.814 E.03452
G1 X72.56 Y71.355 E.03364
G1 X72.47 Y70.843 E.03473
