; generated by PrusaSlicer 2.7.0+win64 on 2023-12-26 at 21:46:41 UTC


;
;
; 

; external perimeters extrusion width = 0.45mm
; perimeters extrusion width = 0.45mm
; infill extrusion width = 0.45mm
; solid infill extrusion width = 0.45mm
; top infill extrusion width = 0.40mm
; support material extrusion width = 0.40mm
; first layer extrusion width = 0.60mm

M73 P0 R24
;TYPE:Custom
M104 S215 ; set final nozzle temp

M190 S60 ; set and wait for bed temp to stabilize

M109 S215 ; wait for nozzle temp to stabilize
G28 ; h1ome all axes
 M117 ;Purge extruder
 G92 E0 ; reset extruder
 G1 Z1.0 F3000 ; move z up little to prevent scratching of surface
 G1 X2 Y20 Z0.3 F5000.0 ; move to start-line position
 G1 X2 Y175.0 Z0.3 F1500.0 E15 ; draw 1st line
 G1 X2 Y175.0 Z0.4 F5000.0 ; move to side a little
 G1 X2 Y20 Z0.4 F1500.0 E30 ; draw 2nd line
 G92 E0 ; reset extruder
 G1 Z1.0 F3000 ; move z up little to prevent scratching of surface
G21 ; set units to millimeters
G90 ; use absolute coordinates
M83 ; use relative distances for extrusion
; Filament gcode
M107
;LAYER_CHANGE
;Z:0.3
;HEIGHT:0.3
G1 E-1 F5400
G1 Z.3 F12000
G1 X48.919 Y30.736
G1 Z.3
G1 E1 F5400
;TYPE:Skirt/Brim
;WIDTH:0.6
G1 F1800
G1 X49.995 Y29.078 E.13204
G1 X50.837 Y28.096 E.08642
G1 X52.25 Y26.824 E.12701
G1 X53.559 Y25.938 E.1056
G1 X64.138 Y19.711 E.82008
G1 X66.272 Y18.916 E.15213
G1 X67.453 Y18.808 E.07923
G1 X78.924 Y18.808 E.76632
G1 X81.773 Y19.461 E.19526
G1 X87.672 Y22.319 E.4379
G1 X88.619 Y22.88 E.07353
M73 P1 R24
G1 X94.127 Y26.824 E.45257
G1 X95.109 Y27.665 E.08637
G1 X96.382 Y29.079 E.1271
G1 X97.116 Y30.143 E.08635
G1 X98.013 Y31.904 E.13203
G1 X98.443 Y33.124 E.08642
G1 X98.743 Y34.382 E.0864
G1 X98.91 Y35.664 E.08637
G1 X98.942 Y36.957 E.08641
G1 X96.853 Y57.488 E1.37866
G1 X95.79 Y60.44 E.20961
G1 X90.076 Y69.011 E.68817
G1 X89.26 Y70.007 E.08602
G1 X86.403 Y72.864 E.26992
G1 X84.536 Y74.169 E.15217
G1 X81.781 Y74.778 E.18849
G1 X64.596 Y74.778 E1.14805
G1 X62.353 Y74.381 E.15217
G1 X59.975 Y72.864 E.18844
G1 X57.117 Y70.007 E.26997
G1 X56.301 Y69.011 E.08602
G1 X50.587 Y60.44 E.68817
G1 X49.524 Y57.488 E.20961
G1 X47.467 Y37.566 E1.33797
G1 X47.435 Y36.273 E.08641
G1 X47.539 Y34.984 E.08639
G1 X47.776 Y33.713 E.08637
G1 X48.145 Y32.473 E.08643
G1 X48.895 Y30.791 E.12303
G1 E-.7 F5400
;WIPE_START
G1 F9600
G1 X48.919 Y30.736 E-.03207
G1 X49.192 Y30.316 E-.26793
;WIPE_END
G1 X78.924 Y28.201 F12000
G1 E1 F5400
;TYPE:Support material
G1 F1800
G1 X84.824 Y28.201 E.39415
G1 X83.761 Y30.265 E.1551
G1 X80.793 Y30.288 E.19828
G1 X80.301 Y30.548 E.03718
G1 X80.076 Y30.871 E.0263
G1 X79.994 Y31.146 E.01917
G1 X79.997 Y31.458 E.02084
G1 X80.156 Y31.86 E.02888
G1 X81.252 Y32.766 E.095
G1 X81.568 Y33.276 E.04008
G1 X81.731 Y33.853 E.04006
G1 X81.797 Y54.166 E1.35703
G1 X82.078 Y54.617 E.0355
G1 X82.546 Y54.866 E.03541
G1 X83.077 Y54.849 E.03549
G1 X83.528 Y54.568 E.0355
G1 X88.884 Y45.343 E.71262
G1 X90.352 Y45.343 E.09807
G1 X90.352 Y56.814 E.76632
G1 X87.495 Y56.814 E.19086
G1 X87.495 Y59.671 E.19086
G1 X84.638 Y59.671 E.19086
G1 X84.638 Y65.385 E.38173
G1 X81.781 Y65.385 E.19086
G1 X81.781 Y68.243 E.19093
G1 X64.596 Y68.243 E1.14805
G1 X64.596 Y65.385 E.19093
G1 X61.739 Y65.385 E.19086
G1 X61.739 Y59.671 E.38173
G1 X58.882 Y59.671 E.19086
G1 X58.882 Y56.814 E.19086
G1 X56.025 Y56.814 E.19086
G1 X56.025 Y45.343 E.76632
G1 X57.493 Y45.343 E.09807
G1 X62.739 Y54.423 E.70056
G1 X63.056 Y54.738 E.02985
G1 X63.366 Y54.866 E.02241
G1 X63.831 Y54.866 E.03106
G1 X64.141 Y54.738 E.02241
G1 X64.503 Y54.35 E.03545
G1 X64.624 Y53.885 E.0321
G1 X64.651 Y33.82 E1.34045
G1 X64.852 Y33.186 E.04443
G1 X65.235 Y32.643 E.04439
G1 X65.485 Y32.421 E.02234
G1 X66.07 Y32.105 E.04442
G1 X66.95 Y31.946 E.05974
G1 X67.25 Y31.813 E.02192
G1 X67.599 Y31.428 E.03471
G1 X67.726 Y30.893 E.03673
G1 X67.635 Y30.65 E.01733
G1 X67.441 Y30.476 E.01741
G1 X67.003 Y30.282 E.032
G1 X64.292 Y30.265 E.18111
G1 X63.524 Y28.201 E.14712
G1 X67.453 Y28.201 E.26248
G1 X67.453 Y25.344 E.19086
G1 X78.924 Y25.344 E.76632
G1 X78.924 Y28.12 E.18545
G1 X76.178 Y61.193 F12000
G1 F1800
G1 X76.781 Y61.298 E.04089
G1 X78.214 Y62.148 E.11131
G1 X78.508 Y62.605 E.0363
G1 X78.552 Y62.883 E.0188
G1 X78.493 Y63.263 E.02569
G1 X77.937 Y64.044 E.06405
G1 X76.945 Y64.948 E.08966
G1 X75.809 Y65.612 E.0879
G1 X74.536 Y66.033 E.08957
G1 X73.846 Y66.144 E.04669
G1 X72.531 Y66.144 E.08785
G1 X71.82 Y66.028 E.04813
G1 X70.592 Y65.623 E.08638
G1 X69.952 Y65.29 E.0482
G1 X68.893 Y64.505 E.08806
G1 X68.016 Y63.512 E.08851
G1 X67.837 Y63.088 E.03075
G1 X67.889 Y62.546 E.03637
G1 X68.163 Y62.148 E.03228
G1 X69.811 Y61.214 E.12655
G1 X70.238 Y61.196 E.02855
G1 X70.531 Y61.293 E.02062
G1 X71.419 Y62.124 E.08125
G1 X72.075 Y62.505 E.05068
G1 X73.188 Y62.727 E.07582
G1 X73.941 Y62.627 E.05075
G1 X74.642 Y62.336 E.05071
G1 X75.244 Y61.872 E.05078
G1 X75.691 Y61.39 E.04392
G1 X76.099 Y61.204 E.02996
G1 E-.7 F5400
;WIPE_START
G1 F9600
G1 X75.691 Y61.39 E-.23961
G1 X75.614 Y61.473 E-.06039
;WIPE_END
G1 X89.852 Y56.573 F12000
G1 E1 F5400
G1 F1800
G1 X89.852 Y45.825 E.71802
G1 X89.257 Y45.825 E.03975
G1 X89.257 Y56.332 E.70192
G1 X88.662 Y56.332 E.03975
G1 X88.662 Y46.691 E.64407
G1 X88.067 Y47.722 E.07952
G1 X88.067 Y56.332 E.57519
G1 X87.472 Y56.332 E.03975
G1 X87.472 Y48.753 E.50632
G1 X86.877 Y49.784 E.07952
G1 X86.877 Y59.189 E.6283
G1 X86.281 Y59.189 E.03982
M73 P2 R24
G1 X86.281 Y50.814 E.5595
G1 X85.686 Y51.845 E.07952
G1 X85.686 Y59.189 E.49062
G1 X85.091 Y59.189 E.03975
G1 X85.091 Y52.876 E.42174
G1 X84.496 Y53.907 E.07952
G1 X84.496 Y59.189 E.35287
G1 X84.156 Y59.189 E.02271
G1 X84.156 Y64.903 E.38173
G1 X83.901 Y64.903 E.01704
G1 X83.901 Y54.873 E.67006
G1 X83.306 Y55.276 E.04801
G1 X83.306 Y64.903 E.64314
G1 X82.711 Y64.903 E.03975
G1 X82.711 Y55.374 E.63659
G1 X82.116 Y55.219 E.04108
G1 X82.116 Y64.903 E.64694
G1 X81.52 Y64.903 E.03982
G1 X81.52 Y54.696 E.68188
G1 X81.34 Y54.321 E.02779
G1 X81.271 Y53.9 E.0285
G1 X81.271 Y34.188 E1.31687
G1 X81.205 Y33.691 E.03349
G1 X80.925 Y33.137 E.04147
G1 X80.925 Y67.76 E2.313
G1 X80.33 Y67.76 E.03975
G1 X80.33 Y32.355 E2.36525
G1 E-.7 F5400
;WIPE_START
G1 F9600
G1 X80.33 Y32.916 E-.3
;WIPE_END
G1 X83.901 Y29.467 F12000
G1 E1 F5400
G1 F1800
G1 X83.901 Y28.683 E.05238
G1 X83.306 Y28.683 E.03975
G1 X83.306 Y29.783 E.07349
G1 X82.711 Y29.783 E.03975
G1 X82.711 Y28.683 E.07349
G1 X82.116 Y28.683 E.03975
G1 X82.116 Y29.783 E.07349
G1 X81.52 Y29.783 E.03982
G1 X81.52 Y28.683 E.07349
G1 X80.925 Y28.683 E.03975
G1 X80.925 Y29.787 E.07375
G1 X80.33 Y29.945 E.04113
G1 X80.33 Y28.683 E.08431
G1 X79.735 Y28.683 E.03975
G1 X79.735 Y67.76 E2.61056
G1 X79.14 Y67.76 E.03975
M73 P2 R23
G1 X79.14 Y28.683 E2.61056
G1 X78.545 Y28.683 E.03975
G1 X78.545 Y61.797 E2.21219
G1 X77.95 Y61.414 E.04727
G1 X77.95 Y25.826 E2.37747
G1 X77.354 Y25.826 E.03982
G1 X77.354 Y61.07 E2.35449
G1 X76.759 Y60.769 E.04455
G1 X76.759 Y25.826 E2.33438
G1 X76.164 Y25.826 E.03975
G1 X76.164 Y60.711 E2.33051
G1 X75.569 Y60.898 E.04167
M73 P3 R23
G1 X75.569 Y25.826 E2.343
G1 X74.974 Y25.826 E.03975
G1 X74.974 Y61.448 E2.37974
G1 X74.379 Y61.928 E.05107
G1 X74.379 Y25.826 E2.41181
G1 X73.784 Y25.826 E.03975
G1 X73.784 Y62.167 E2.42778
G1 X73.189 Y62.244 E.04008
G1 X73.189 Y25.826 E2.43292
G1 X72.593 Y25.826 E.03982
G1 X72.593 Y62.167 E2.42778
G1 X71.998 Y61.929 E.04281
G1 X71.998 Y25.826 E2.41188
G1 X71.403 Y25.826 E.03975
G1 X71.403 Y61.448 E2.37974
G1 X70.808 Y60.898 E.05413
G1 X70.808 Y25.826 E2.343
G1 X70.213 Y25.826 E.03975
G1 X70.213 Y60.711 E2.33051
G1 X69.618 Y60.769 E.03994
G1 X69.618 Y25.826 E2.33438
G1 X69.023 Y25.826 E.03975
G1 X69.023 Y61.07 E2.35449
G1 X68.427 Y61.414 E.04597
M73 P4 R23
G1 X68.427 Y25.826 E2.37747
G1 X67.935 Y25.826 E.03287
G1 X67.935 Y28.683 E.19086
G1 X67.832 Y28.683 E.00688
G1 X67.832 Y30.179 E.09994
G1 X67.237 Y29.845 E.04558
G1 X67.237 Y28.683 E.07763
G1 X66.642 Y28.683 E.03975
G1 X66.642 Y29.783 E.07349
G1 X66.047 Y29.783 E.03975
G1 X66.047 Y28.683 E.07349
G1 X65.452 Y28.683 E.03975
G1 X65.452 Y29.783 E.07349
G1 X64.857 Y29.783 E.03975
G1 X64.857 Y28.683 E.07349
G1 X64.262 Y28.683 E.03975
G1 X64.262 Y29.492 E.05405
G1 E-.7 F5400
;WIPE_START
G1 F9600
G1 X64.262 Y28.93 E-.3
;WIPE_END
G1 X78.545 Y68.001 F12000
G1 E1 F5400
G1 F1800
G1 X78.545 Y64.056 E.26355
G1 X77.95 Y64.719 E.05951
G1 X77.95 Y67.76 E.20316
G1 X77.354 Y67.76 E.03982
G1 X77.354 Y65.237 E.16855
G1 X76.759 Y65.647 E.04827
G1 X76.759 Y67.76 E.14116
G1 X76.164 Y67.76 E.03975
G1 X76.164 Y65.971 E.11951
G1 X75.569 Y66.224 E.04319
G1 X75.569 Y67.76 E.10261
G1 X74.974 Y67.76 E.03975
G1 X74.974 Y66.414 E.08992
G1 X74.379 Y66.548 E.04074
G1 X74.379 Y67.76 E.08097
G1 X73.784 Y67.76 E.03975
G1 X73.784 Y66.63 E.07549
G1 X73.189 Y66.66 E.0398
G1 X73.189 Y67.76 E.07349
G1 X72.593 Y67.76 E.03982
G1 X72.593 Y66.63 E.07549
G1 X71.998 Y66.548 E.04012
G1 X71.998 Y67.76 E.08097
G1 X71.403 Y67.76 E.03975
G1 X71.403 Y66.414 E.08992
G1 X70.808 Y66.224 E.04173
G1 X70.808 Y67.76 E.10261
G1 X70.213 Y67.76 E.03975
G1 X70.213 Y65.971 E.11951
G1 X69.618 Y65.647 E.04526
G1 X69.618 Y67.76 E.14116
G1 X69.023 Y67.76 E.03975
G1 X69.023 Y65.237 E.16855
G1 X68.427 Y64.719 E.05275
G1 X68.427 Y67.76 E.20316
G1 X67.832 Y67.76 E.03975
G1 X67.832 Y64.056 E.24745
G1 X67.47 Y63.526 E.04288
G1 X67.341 Y62.827 E.04749
G1 X67.443 Y62.361 E.03187
G1 X67.832 Y61.797 E.04577
G1 X67.832 Y31.935 E1.99494
G1 X67.237 Y32.356 E.04869
G1 X67.237 Y67.76 E2.36518
G1 X66.642 Y67.76 E.03975
G1 X66.642 Y32.475 E2.35723
G1 X66.047 Y32.643 E.0413
G1 X66.047 Y67.76 E2.34601
G1 X65.452 Y67.76 E.03975
G1 X65.452 Y33.137 E2.313
G1 X65.188 Y33.642 E.03807
G1 X65.106 Y34.192 E.03715
G1 X65.106 Y53.9 E1.3166
G1 X65.037 Y54.321 E.0285
G1 X64.857 Y54.696 E.02779
G1 X64.857 Y64.903 E.68188
G1 X64.262 Y64.903 E.03975
G1 X64.262 Y55.219 E.64694
G1 X63.666 Y55.374 E.04114
G1 X63.666 Y64.903 E.63659
G1 X63.071 Y64.903 E.03975
G1 X63.071 Y55.276 E.64314
G1 X62.476 Y54.873 E.04801
G1 X62.476 Y64.903 E.67006
G1 X62.221 Y64.903 E.01704
G1 X62.221 Y59.189 E.38173
G1 X61.881 Y59.189 E.02271
G1 X61.881 Y53.907 E.35287
G1 X61.286 Y52.876 E.07952
G1 X61.286 Y59.189 E.42174
G1 X60.691 Y59.189 E.03975
G1 X60.691 Y51.845 E.49062
G1 X60.096 Y50.814 E.07952
G1 X60.096 Y59.189 E.5595
G1 X59.501 Y59.189 E.03975
G1 X59.501 Y49.784 E.6283
G1 X58.905 Y48.753 E.07956
G1 X58.905 Y56.332 E.50632
G1 X58.31 Y56.332 E.03975
G1 X58.31 Y47.722 E.57519
G1 X57.715 Y46.691 E.07952
G1 X57.715 Y56.332 E.64407
G1 X57.12 Y56.332 E.03975
M73 P5 R23
G1 X57.12 Y45.825 E.70192
G1 X56.525 Y45.825 E.03975
G1 X56.525 Y56.573 E.71802
G1 E-.7 F5400
;WIPE_START
G1 F9600
G1 X56.525 Y56.012 E-.3
;WIPE_END
G1 X69.983 Y62.697 F12000
G1 E1 F5400
;TYPE:Perimeter
;WIDTH:0.69407
G1 F1800
G1 X70.178 Y62.907 E.02251
;WIDTH:0.697465
G1 X70.622 Y63.286 E.04609
G1 X71.071 Y63.577 E.04225
;WIDTH:0.69454
G1 X71.581 Y63.822 E.04447
;WIDTH:0.693796
G1 X72.119 Y63.999 E.04446
;WIDTH:0.697377
G1 X72.714 Y64.108 E.04776
G1 X73.241 Y64.134 E.04166
;WIDTH:0.694936
G1 X73.808 Y64.089 E.04473
;WIDTH:0.693937
G1 X74.37 Y63.968 E.04514
;WIDTH:0.697933
G1 X74.948 Y63.757 E.04862
G1 X75.397 Y63.526 E.0399
;WIDTH:0.695288
G1 X75.862 Y63.203 E.04455
;WIDTH:0.693645
G1 X76.393 Y62.697 E.05757
;WIDTH:0.692872
G1 X76.951 Y63.019 E.0505
G1 X76.88 Y63.112 E.00917
;WIDTH:0.698992
G1 X76.51 Y63.481 E.04136
G1 X76.106 Y63.813 E.04139
;WIDTH:0.697173
G1 X75.669 Y64.099 E.04122
;WIDTH:0.697933
G1 X75.203 Y64.337 E.04135
;WIDTH:0.699262
G1 X74.715 Y64.524 E.04138
;WIDTH:0.699608
G1 X74.21 Y64.659 E.04142
G1 X73.701 Y64.74 E.04084
;WIDTH:0.697188
G1 X73.171 Y64.767 E.04189
;WIDTH:0.697377
G1 X72.643 Y64.736 E.04176
;WIDTH:0.699325
G1 X72.134 Y64.652 E.04085
G1 X71.63 Y64.513 E.0414
G1 X71.144 Y64.323 E.04132
;WIDTH:0.697828
G1 X70.674 Y64.079 E.04184
;WIDTH:0.697465
G1 X70.244 Y63.793 E.04078
;WIDTH:0.698921
G1 X69.842 Y63.459 E.04136
G1 X69.422 Y63.021 E.04803
;WIDTH:0.692617
G1 X69.931 Y62.727 E.04606
G1 X70.01 Y62.03 F12000
;TYPE:External perimeter
;WIDTH:0.6
G1 F1800
G1 X70.186 Y62.05 E.01183
G1 X70.541 Y62.448 E.03563
G1 X70.903 Y62.769 E.03232
G1 X71.33 Y63.056 E.03437
G1 X72.038 Y63.363 E.05155
G1 X72.679 Y63.517 E.04404
G1 X73.186 Y63.553 E.03396
G1 X73.692 Y63.518 E.03388
G1 X74.341 Y63.363 E.04458
G1 X75.041 Y63.059 E.05098
G1 X75.43 Y62.801 E.03118
G1 X75.809 Y62.474 E.03344
G1 X76.145 Y62.102 E.03349
G1 X76.272 Y62.019 E.01014
G1 X76.426 Y62.043 E.01041
G1 X77.151 Y62.462 E.05594
G1 X77.691 Y62.808 E.04284
G1 X77.715 Y62.935 E.00863
G1 X77.709 Y62.979 E.00297
G1 X77.326 Y63.488 E.04256
G1 X76.919 Y63.903 E.03883
G1 X76.467 Y64.274 E.03907
G1 X75.979 Y64.596 E.03906
G1 X75.459 Y64.864 E.03908
G1 X74.914 Y65.076 E.03907
G1 X74.35 Y65.229 E.03904
G1 X73.78 Y65.32 E.03856
G1 X73.189 Y65.352 E.03954
G1 X72.597 Y65.32 E.03961
G1 X72.027 Y65.229 E.03856
G1 X71.463 Y65.076 E.03904
G1 X70.918 Y64.864 E.03907
G1 X70.392 Y64.592 E.03956
G1 X69.91 Y64.274 E.03858
G1 X69.458 Y63.903 E.03907
G1 X69.048 Y63.486 E.03907
G1 X68.701 Y63.048 E.03733
G1 X68.666 Y62.849 E.0135
G1 X68.763 Y62.729 E.01031
G1 X69.958 Y62.059 E.09152
G1 E-.7 F5400
;WIPE_START
G1 F9600
G1 X70.01 Y62.03 E-.03182
G1 X70.186 Y62.05 E-.09466
G1 X70.402 Y62.292 E-.17352
;WIPE_END
G1 X63.263 Y52.615 F12000
G1 E1 F5400
;TYPE:Perimeter
G1 F1800
G1 X56.154 Y40.302 E.94983
;WIDTH:0.642025
G1 X56.064 Y40.103 E.01574
;WIDTH:0.68405
G1 X55.973 Y39.905 E.01684
;WIDTH:0.726075
G1 X55.883 Y39.707 E.01795
G1 X55.516 Y39.098 E.05868
;WIDTH:0.698785
G1 X55.268 Y38.609 E.04338
;WIDTH:0.69851
G1 X55.085 Y38.126 E.04085
;WIDTH:0.699895
G1 X54.954 Y37.626 E.04097
G1 X54.874 Y37.108 E.04155
;WIDTH:0.69851
G1 X54.847 Y36.599 E.04031
G1 X54.878 Y36.083 E.04089
;WIDTH:0.699895
G1 X54.961 Y35.573 E.04096
G1 X55.098 Y35.067 E.04155
;WIDTH:0.69851
G1 X55.281 Y34.591 E.04033
G1 X55.519 Y34.132 E.04089
;WIDTH:0.700312
G1 X55.802 Y33.7 E.04096
G1 X56.128 Y33.299 E.04099
;WIDTH:0.698512
G1 X56.499 Y32.929 E.04144
G1 X56.898 Y32.611 E.04035
;WIDTH:0.699917
G1 X57.333 Y32.331 E.04101
G1 X57.793 Y32.098 E.04087
;WIDTH:0.698476
G1 X58.355 Y31.891 E.04737
;WIDTH:0.694998
G1 X59.015 Y31.741 E.05324
;WIDTH:0.695166
G1 X59.675 Y31.681 E.05214
;WIDTH:0.706276
G1 X60.185 Y31.679 E.04083
;WIDTH:0.731725
G1 X60.511 Y31.692 E.02716
;WIDTH:0.757174
G1 X60.837 Y31.705 E.02819
G1 X61 Y31.685 E.01419
;WIDTH:0.71788
G1 X61.164 Y31.665 E.01347
;WIDTH:0.678587
G1 X61.328 Y31.646 E.01265
;WIDTH:0.639293
G1 X61.492 Y31.626 E.01185
;WIDTH:0.6
G1 X64.331 Y31.626 E.18966
G1 X63.947 Y32.065 E.03896
G1 X63.661 Y32.526 E.03624
G1 X63.44 Y33.049 E.03793
G1 X63.309 Y33.587 E.03699
G1 X63.262 Y34.152 E.03788
G1 X62.811 Y33.617 E.04675
G1 X62.288 Y33.173 E.04583
G1 X61.868 Y32.899 E.0335
G1 X61.33 Y32.646 E.03972
;WIDTH:0.639293
G1 X61.192 Y32.582 E.01091
;WIDTH:0.678587
G1 X61.053 Y32.519 E.01169
;WIDTH:0.71788
G1 X60.915 Y32.456 E.01236
;WIDTH:0.757174
G1 X60.776 Y32.392 E.01322
G1 X60.476 Y32.357 E.0261
;WIDTH:0.731725
G1 X60.175 Y32.321 E.02523
;WIDTH:0.706276
G1 X59.566 Y32.316 E.04876
;WIDTH:0.698509
G1 X58.903 Y32.403 E.05289
G1 X58.4 Y32.538 E.04119
;WIDTH:0.694695
G1 X57.846 Y32.772 E.04728
;WIDTH:0.698512
G1 X57.266 Y33.126 E.05374
G1 X56.861 Y33.455 E.04127
;WIDTH:0.694694
G1 X56.449 Y33.896 E.04745
;WIDTH:0.69851
G1 X56.064 Y34.453 E.05355
G1 X55.829 Y34.918 E.04121
;WIDTH:0.694999
G1 X55.632 Y35.486 E.04729
;WIDTH:0.69851
G1 X55.507 Y36.154 E.05375
G1 X55.481 Y36.675 E.04126
;WIDTH:0.694999
G1 X55.532 Y37.273 E.04721
;WIDTH:0.69851
G1 X55.69 Y37.935 E.05383
G1 X55.877 Y38.421 E.04119
;WIDTH:0.700796
G1 X56.164 Y38.949 E.0477
;WIDTH:0.703558
G1 X56.523 Y39.432 E.04798
G1 X56.675 Y39.56 E.01584
;WIDTH:0.669038
G1 X56.827 Y39.689 E.01504
;WIDTH:0.634519
G1 X56.979 Y39.818 E.01418
;WIDTH:0.6
G1 X57.452 Y40.177 E.03967
G1 X57.97 Y40.468 E.03969
G1 X58.524 Y40.683 E.0397
G1 X59.102 Y40.819 E.03967
G1 X59.694 Y40.873 E.03971
G1 X60.332 Y40.837 E.04269
G1 X60.871 Y40.734 E.03666
G1 X61.434 Y40.543 E.03972
G1 X61.965 Y40.276 E.03971
G1 X62.453 Y39.937 E.0397
G1 X62.889 Y39.533 E.03971
G1 X63.263 Y39.076 E.03945
G1 X63.263 Y52.555 E.90047
G1 E-.7 F5400
