; generated by PrusaSlicer 2.7.0+win64 on 2023-12-26 at 21:47:08 UTC


;
;
; 

; external perimeters extrusion width = 0.45mm
; perimeters extrusion width = 0.45mm
; infill extrusion width = 0.45mm
; solid infill extrusion width = 0.45mm
; top infill extrusion width = 0.40mm
; first layer extrusion width = 0.60mm

M73 P0 R24
;TYPE:Custom
M104 S215 ; set final nozzle temp

M190 S60 ; set and wait for bed temp to stabilize

M109 S215 ; wait for nozzle temp to stabilize
G28 ; h1ome all axes
 M117 ;Purge extruder
 G92 E0 ; reset extruder
 G1 Z1.0 F3000 ; move z up little to prevent scratching of surface
 G1 X2 Y20 Z0.3 F5000.0 ; move to start-line position
 G1 X2 Y175.0 Z0.3 F1500.0 E15 ; draw 1st line
 G1 X2 Y175.0 Z0.4 F5000.0 ; move to side a little
 G1 X2 Y20 Z0.4 F1500.0 E30 ; draw 2nd line
 G92 E0 ; reset extruder
 G1 Z1.0 F3000 ; move z up little to prevent scratching of surface
G21 ; set units to millimeters
G90 ; use absolute coordinates
M83 ; use relative distances for extrusion
; Filament gcode
M107
;LAYER_CHANGE
;Z:0.3
;HEIGHT:0.3
G1 E-1 F5400
G1 Z.3 F12000
G1 X56.515 Y32.629
G1 Z.3
G1 E1 F5400
;TYPE:Skirt/Brim
;WIDTH:0.6
G1 F1800
G1 X58.158 Y29.784 E.21948
G1 X58.697 Y28.94 E.0669
G1 X59.532 Y27.864 E.09099
G1 X60.48 Y26.887 E.09094
G1 X61.529 Y26.02 E.09092
G1 X62.667 Y25.274 E.0909
G1 X64.548 Y24.386 E.13896
G1 X65.848 Y23.982 E.09094
G1 X67.185 Y23.723 E.09098
G1 X68.542 Y23.613 E.09095
G1 X69.902 Y23.652 E.09089
G1 X71.25 Y23.841 E.09093
G1 X72.57 Y24.178 E.09101
G1 X74.424 Y24.931 E.13368
G1 X75.604 Y25.61 E.09095
G1 X76.702 Y26.414 E.09091
G1 X77.705 Y27.335 E.09097
G1 X78.601 Y28.36 E.09095
G1 X79.567 Y29.784 E.11495
G1 X92.969 Y52.997 E1.79066
G1 X93.719 Y54.545 E.11491
M73 P1 R24
G1 X94.317 Y56.456 E.13377
G1 X94.543 Y57.798 E.09092
G1 X94.62 Y59.157 E.09093
G1 X94.448 Y61.23 E.13896
G1 X94.149 Y62.558 E.09094
G1 X93.704 Y63.845 E.09097
G1 X93.122 Y65.075 E.09091
G1 X92.407 Y66.233 E.09092
G1 X91.134 Y67.779 E.13379
G1 X90.134 Y68.702 E.09091
G1 X88.425 Y69.887 E.13893
G1 X87.21 Y70.5 E.09091
G1 X85.934 Y70.975 E.09096
G1 X83.981 Y71.413 E.13371
G1 X82.264 Y71.537 E.115
G1 X55.461 Y71.537 E1.79059
G1 X54.46 Y71.492 E.06694
G1 X53.111 Y71.307 E.09096
G1 X51.791 Y70.975 E.09093
G1 X50.515 Y70.5 E.09096
G1 X48.686 Y69.51 E.13894
G1 X47.591 Y68.702 E.09091
G1 X46.59 Y67.779 E.09096
G1 X45.698 Y66.751 E.09093
G1 X44.924 Y65.631 E.09095
G1 X44.02 Y63.845 E.13373
G1 X43.4 Y61.86 E.13893
G1 X43.178 Y60.517 E.09094
G1 X43.105 Y59.157 E.09099
G1 X43.182 Y57.798 E.09093
G1 X43.408 Y56.456 E.09092
G1 X44.006 Y54.545 E.13377
G1 X44.756 Y52.997 E.11491
G1 X56.485 Y32.681 E1.56717
G1 E-.7 F5400
;WIPE_START
G1 F9600
G1 X56.515 Y32.629 E-.03208
G1 X56.766 Y32.195 E-.26792
;WIPE_END
G1 X85.742 Y62.752 F12000
G1 E1 F5400
;TYPE:Perimeter
;WIDTH:0.6
G1 F1800
G1 X85.328 Y63.113 E.0367
G1 X84.876 Y63.426 E.03673
G1 X84.393 Y63.688 E.03671
G1 X83.884 Y63.895 E.03671
G1 X83.355 Y64.044 E.03672
G1 X82.813 Y64.135 E.03672
G1 X82.241 Y64.166 E.03827
G1 X55.484 Y64.166 E1.78751
G1 X54.912 Y64.135 E.03827
G1 X54.37 Y64.044 E.03672
G1 X53.841 Y63.895 E.03672
G1 X53.332 Y63.688 E.03671
G1 X52.849 Y63.426 E.03671
G1 X52.397 Y63.113 E.03673
G1 X51.982 Y62.752 E.03675
G1 X51.61 Y62.348 E.03669
G1 X51.285 Y61.905 E.0367
G1 X51.01 Y61.429 E.03672
G1 X50.789 Y60.926 E.0367
G1 X50.625 Y60.401 E.03674
G1 X50.52 Y59.863 E.03662
G1 X50.475 Y59.301 E.03766
G1 X50.49 Y58.765 E.03582
G1 X50.565 Y58.221 E.03669
G1 X50.7 Y57.688 E.03673
G1 X50.893 Y57.173 E.03674
G1 X51.151 Y56.662 E.03824
G1 X64.53 Y33.49 E1.78751
G1 X64.843 Y33.011 E.03823
G1 X65.202 Y32.577 E.03763
G1 X65.586 Y32.203 E.03581
G1 X66.02 Y31.865 E.03675
G1 X66.488 Y31.577 E.03671
G1 X66.985 Y31.343 E.0367
G1 X67.505 Y31.164 E.03674
G1 X68.041 Y31.044 E.03669
G1 X68.587 Y30.984 E.0367
G1 X69.15 Y30.985 E.03761
G1 X69.683 Y31.044 E.03582
G1 X70.22 Y31.164 E.03676
G1 X70.739 Y31.343 E.03668
G1 X71.237 Y31.577 E.03676
G1 X71.705 Y31.865 E.03671
G1 X72.138 Y32.203 E.0367
G1 X72.532 Y32.586 E.03671
G1 X72.882 Y33.01 E.03673
G1 X73.195 Y33.49 E.03828
G1 X86.652 Y56.816 E1.79903
G1 X86.883 Y57.308 E.03631
G1 X87.051 Y57.791 E.03416
G1 X87.17 Y58.294 E.03453
G1 X87.237 Y58.84 E.03675
G1 X87.25 Y59.314 E.03168
G1 X87.205 Y59.862 E.03673
G1 X87.1 Y60.401 E.03668
G1 X86.936 Y60.926 E.03674
G1 X86.715 Y61.429 E.0367
G1 X86.44 Y61.905 E.03672
G1 X86.115 Y62.348 E.0367
G1 X85.783 Y62.708 E.03272
G1 X86.13 Y63.122 F12000
;TYPE:External perimeter
G1 F1800
G1 X86.116 Y63.137 E.00137
G1 X85.657 Y63.536 E.04063
G1 X85.157 Y63.883 E.04066
G1 X84.622 Y64.173 E.04065
G1 X84.058 Y64.402 E.04067
G1 X83.472 Y64.568 E.04069
G1 X82.872 Y64.668 E.04064
G1 X82.256 Y64.702 E.04121
G1 X55.469 Y64.702 E1.78951
G1 X54.853 Y64.668 E.04121
G1 X54.253 Y64.568 E.04064
G1 X53.667 Y64.402 E.04069
G1 X53.103 Y64.173 E.04067
G1 X52.568 Y63.883 E.04065
G1 X52.067 Y63.536 E.04071
G1 X51.608 Y63.137 E.04063
G1 X51.196 Y62.689 E.04066
G1 X50.836 Y62.198 E.04067
G1 X50.531 Y61.671 E.04068
G1 X50.287 Y61.114 E.04062
G1 X50.105 Y60.533 E.04067
G1 X49.989 Y59.936 E.04063
G1 X49.939 Y59.316 E.04155
G1 X49.955 Y58.721 E.03976
G1 X50.039 Y58.118 E.04067
G1 X50.188 Y57.528 E.04065
G1 X50.401 Y56.958 E.04065
G1 X50.68 Y56.407 E.04126
G1 X64.073 Y33.209 E1.78949
G1 X64.411 Y32.693 E.04121
G1 X64.807 Y32.213 E.04157
G1 X65.234 Y31.798 E.03978
G1 X65.714 Y31.424 E.04065
G1 X66.233 Y31.106 E.04066
G1 X66.783 Y30.846 E.04064
G1 X67.359 Y30.648 E.04069
G1 X67.953 Y30.515 E.04066
G1 X68.558 Y30.448 E.04066
G1 X69.18 Y30.45 E.04155
G1 X69.772 Y30.515 E.03979
G1 X70.366 Y30.648 E.04066
G1 X70.941 Y30.846 E.04063
G1 X71.492 Y31.106 E.0407
G1 X72.01 Y31.424 E.04061
G1 X72.491 Y31.798 E.0407
G1 X72.927 Y32.223 E.04068
G1 X73.314 Y32.692 E.04062
G1 X73.651 Y33.209 E.04123
G1 X87.129 Y56.574 E1.80199
G1 X87.399 Y57.16 E.0431
G1 X87.57 Y57.659 E.03524
G1 X87.714 Y58.318 E.04506
G1 X87.773 Y58.825 E.0341
G1 X87.787 Y59.329 E.03368
G1 X87.736 Y59.936 E.04069
G1 X87.62 Y60.533 E.04063
G1 X87.438 Y61.114 E.04067
G1 X87.193 Y61.671 E.04065
G1 X86.889 Y62.198 E.04064
G1 X86.529 Y62.689 E.04067
G1 X86.17 Y63.078 E.03536
G1 E-.7 F5400
;WIPE_START
G1 F9600
G1 X86.13 Y63.122 E-.03178
G1 X86.116 Y63.137 E-.01096
G1 X85.753 Y63.453 E-.25726
;WIPE_END
G1 X83.303 Y61.2 F12000
G1 E1 F5400
;TYPE:Perimeter
G1 F1800
G1 X83.228 Y61.245 E.00584
G1 X82.771 Y61.402 E.03228
G1 X82.259 Y61.455 E.03439
G1 X81.84 Y61.419 E.02809
G1 X81.368 Y61.275 E.03297
G1 X80.938 Y61.033 E.03296
G1 X80.57 Y60.705 E.03293
G1 X80.281 Y60.305 E.03297
G1 X80.082 Y59.841 E.03373
G1 X79.986 Y59.306 E.03631
G1 X80.011 Y58.813 E.03298
G1 X80.084 Y58.502 E.02134
G1 X80.289 Y58.029 E.03444
G1 X80.647 Y57.567 E.03905
G1 X81.03 Y57.257 E.03292
G1 X81.483 Y57.034 E.03373
G1 X82.011 Y56.909 E.03625
G1 X82.505 Y56.908 E.033
G1 X82.987 Y57.013 E.03296
G1 X83.436 Y57.219 E.033
G1 X83.829 Y57.516 E.03291
G1 X84.144 Y57.882 E.03226
G1 X84.358 Y58.27 E.0296
G1 X84.504 Y58.741 E.03294
G1 X84.545 Y59.233 E.03298
G1 X84.48 Y59.722 E.03296
G1 X84.305 Y60.195 E.03369
G1 X84.023 Y60.633 E.0348
G1 X83.65 Y60.99 E.03449
G1 X83.354 Y61.169 E.02311
G1 X83.036 Y60.745 F12000
;TYPE:External perimeter
G1 F1800
G1 X82.685 Y60.874 E.02498
G1 X82.281 Y60.92 E.02716
G1 X81.976 Y60.901 E.02042
G1 X81.612 Y60.799 E.02525
G1 X81.279 Y60.621 E.02522
G1 X80.992 Y60.375 E.02525
G1 X80.764 Y60.073 E.02528
G1 X80.605 Y59.726 E.0255
G1 X80.522 Y59.314 E.02808
G1 X80.533 Y58.936 E.02526
G1 X80.606 Y58.624 E.02141
G1 X80.769 Y58.271 E.02598
G1 X80.999 Y57.971 E.02525
G1 X81.288 Y57.727 E.02527
G1 X81.626 Y57.55 E.02549
G1 X82.033 Y57.444 E.0281
G1 X82.411 Y57.435 E.02526
G1 X82.782 Y57.507 E.02525
G1 X83.129 Y57.658 E.02528
G1 X83.435 Y57.879 E.02522
G1 X83.76 Y58.283 E.03464
G1 X83.959 Y58.75 E.03391
G1 X84.012 Y59.182 E.02908
G1 X83.97 Y59.558 E.02528
G1 X83.846 Y59.919 E.0255
G1 X83.623 Y60.276 E.02812
G1 X83.355 Y60.542 E.02523
G1 X83.087 Y60.713 E.02124
G1 E-.7 F5400
;WIPE_START
G1 F9600
G1 X83.036 Y60.745 E-.03217
G1 X82.685 Y60.874 E-.19983
G1 X82.558 Y60.888 E-.068
;WIPE_END
G1 X54.159 Y57.313 F12000
G1 E1 F5400
;TYPE:Perimeter
G1 F1800
G1 X54.227 Y57.257 E.00588
G1 X54.679 Y57.034 E.03367
G1 X55.208 Y56.909 E.03631
G1 X55.702 Y56.908 E.033
G1 X56.184 Y57.013 E.03296
G1 X56.632 Y57.219 E.03294
G1 X57.026 Y57.516 E.03296
G1 X57.34 Y57.882 E.03222
G1 X57.555 Y58.27 E.02963
G1 X57.701 Y58.741 E.03294
G1 X57.742 Y59.233 E.03298
G1 X57.676 Y59.722 E.03296
G1 X57.502 Y60.195 E.03367
G1 X57.204 Y60.649 E.03628
G1 X56.846 Y60.99 E.03303
G1 X56.424 Y61.245 E.03294
G1 X55.968 Y61.402 E.03222
G1 X55.517 Y61.457 E.03035
G1 X55.157 Y61.438 E.02408
G1 X54.668 Y61.317 E.03365
G1 X54.22 Y61.092 E.03349
G1 X53.78 Y60.725 E.03828
G1 X53.45 Y60.256 E.03831
G1 X53.264 Y59.793 E.03333
G1 X53.183 Y59.284 E.03443
G1 X53.214 Y58.789 E.03313
G1 X53.363 Y58.286 E.03505
G1 X53.535 Y57.953 E.02504
G1 X53.843 Y57.567 E.03299
G1 X54.112 Y57.35 E.02309
G1 X54.484 Y57.727 F12000
;TYPE:External perimeter
G1 F1800
G1 X54.822 Y57.55 E.02549
G1 X55.23 Y57.444 E.02816
G1 X55.608 Y57.435 E.02526
G1 X55.979 Y57.507 E.02525
G1 X56.326 Y57.658 E.02528
G1 X56.632 Y57.879 E.02522
G1 X56.881 Y58.158 E.02498
G1 X57.049 Y58.448 E.02239
G1 X57.169 Y58.806 E.02522
G1 X57.209 Y59.182 E.02526
G1 X57.167 Y59.558 E.02528
G1 X57.043 Y59.919 E.0255
G1 X56.82 Y60.276 E.02812
G1 X56.552 Y60.542 E.02523
G1 X56.233 Y60.745 E.02526
G1 X55.881 Y60.874 E.02504
G1 X55.546 Y60.922 E.02261
G1 X55.187 Y60.903 E.02402
G1 X54.765 Y60.78 E.02936
G1 X54.437 Y60.593 E.02522
G1 X54.156 Y60.34 E.02526
G1 X53.937 Y60.033 E.02519
G1 X53.788 Y59.685 E.02529
G1 X53.718 Y59.291 E.02673
G1 X53.735 Y58.912 E.02534
G1 X53.849 Y58.511 E.02785
G1 X53.966 Y58.271 E.01784
G1 X54.195 Y57.971 E.02521
G1 X54.438 Y57.766 E.02124
G1 E-.7 F5400
;WIPE_START
G1 F9600
G1 X54.484 Y57.727 E-.03223
G1 X54.822 Y57.55 E-.20389
G1 X54.938 Y57.52 E-.06388
;WIPE_END
G1 X70.653 Y34.563 F12000
G1 E1 F5400
;TYPE:Perimeter
G1 F1800
G1 X70.712 Y34.628 E.00586
G1 X70.956 Y35.057 E.03297
G1 X71.102 Y35.529 E.03301
G1 X71.144 Y36.02 E.03292
G1 X71.078 Y36.509 E.03296
G1 X70.904 Y36.983 E.03373
G1 X70.605 Y37.437 E.03632
G1 X70.248 Y37.777 E.03294
G1 X69.836 Y38.029 E.03226
G1 X69.418 Y38.177 E.02962
G1 X68.919 Y38.245 E.03364
G1 X68.378 Y38.194 E.0363
G1 X67.91 Y38.038 E.03296
G1 X67.486 Y37.784 E.03302
G1 X67.127 Y37.446 E.03294
G1 X66.854 Y37.048 E.03224
G1 X66.683 Y36.639 E.02962
G1 X66.61 Y36.328 E.02134
G1 X66.584 Y35.835 E.03298
G1 X66.698 Y35.235 E.0408
G1 X66.91 Y34.778 E.03366
G1 X67.253 Y34.348 E.03675
G1 X67.681 Y34.012 E.03635
G1 X68.128 Y33.804 E.03294
G1 X68.61 Y33.697 E.03298
G1 X69.092 Y33.693 E.0322
G1 X69.527 Y33.781 E.02965
G1 X69.98 Y33.975 E.03292
G1 X70.382 Y34.262 E.033
G1 X70.613 Y34.519 E.02309
G1 X70.257 Y34.911 F12000
;TYPE:External perimeter
G1 F1800
M73 P2 R24
G1 X70.451 Y35.235 E.02523
G1 X70.571 Y35.594 E.02529
G1 X70.61 Y35.97 E.02525
G1 X70.568 Y36.345 E.02521
G1 X70.445 Y36.706 E.02548
G1 X70.222 Y37.063 E.02812
G1 X69.953 Y37.33 E.02532
G1 X69.638 Y37.531 E.02496
G1 X69.325 Y37.65 E.02237
G1 X68.948 Y37.71 E.0255
G1 X68.528 Y37.68 E.02813
G1 X68.167 Y37.568 E.02525
G1 X67.838 Y37.381 E.02528
G1 X67.558 Y37.128 E.02521
G1 X67.34 Y36.823 E.02505
G1 X67.204 Y36.517 E.02237
G1 X67.131 Y36.206 E.02134
G1 X67.125 Y35.77 E.02913
G1 X67.208 Y35.401 E.02527
G1 X67.367 Y35.059 E.0252
G1 X67.6 Y34.756 E.02553
G1 X67.997 Y34.452 E.0334
G1 X68.355 Y34.298 E.02604
G1 X68.737 Y34.227 E.02596
G1 X69.155 Y34.246 E.02795
G1 X69.634 Y34.396 E.03353
G1 X69.998 Y34.636 E.02913
G1 X70.216 Y34.867 E.02122
G1 E-.7 F5400
;WIPE_START
G1 F9600
G1 X70.257 Y34.911 E-.03214
G1 X70.451 Y35.235 E-.2018
G1 X70.49 Y35.352 E-.06606
;WIPE_END
G1 X73.206 Y33.831 F12000
G1 E1 F5400
;TYPE:Solid infill
;WIDTH:0.603676
G1 F1800
G1 X71.874 Y32.506 E.12637
G1 X71.475 Y32.196 E.03399
G1 X71.045 Y31.931 E.03397
G1 X70.588 Y31.716 E.03397
G1 X70.193 Y31.58 E.0281
G1 X73.59 Y34.977 E.32314
G1 X74.632 Y36.782 E.14019
G1 X69.251 Y31.401 E.51187
G1 X68.669 Y31.386 E.03916
G1 X68.491 Y31.403 E.01203
G1 X75.673 Y38.586 E.68324
G1 X76.715 Y40.391 E.14019
G1 X71.371 Y35.046 E.5084
G1 X71.246 Y34.728 E.02298
G1 X71.014 Y34.357 E.02943
G1 X70.896 Y34.214 E.01247
G1 X70.548 Y33.872 E.03282
G1 X70.056 Y33.557 E.0393
G1 X69.781 Y33.456 E.01971
G1 X67.828 Y31.504 E.18573
G1 X67.615 Y31.552 E.01469
G1 X67.242 Y31.68 E.02653
G1 X68.848 Y33.286 E.15277
G1 X68.432 Y33.312 E.02804
G1 X68.181 Y33.382 E.01753
G1 X66.714 Y31.915 E.13955
G1 X66.24 Y32.203 E.03731
G1 X67.631 Y33.594 E.13232
G1 X67.347 Y33.745 E.02164
G1 X67.17 Y33.896 E.01565
G1 X65.815 Y32.541 E.1289
G1 X65.436 Y32.924 E.03624
G1 X66.79 Y34.279 E.12885
G1 X66.571 Y34.561 E.02402
G1 X66.487 Y34.738 E.01318
G1 X65.1 Y33.351 E.13194
G1 X64.804 Y33.818 E.03719
G1 X66.269 Y35.283 E.13936
G1 X66.206 Y35.588 E.02095
G1 X66.184 Y35.961 E.02513
G1 X64.349 Y34.125 E.1746
G1 E-.7 F5400
;WIPE_START
G1 F9600
G1 X64.746 Y34.522 E-.3
;WIPE_END
G1 X71.288 Y35.726 F12000
G1 E1 F5400
G1 F1800
G1 X77.757 Y42.195 E.61537
G1 X78.799 Y44 E.14019
G1 X71.454 Y36.654 E.69875
G1 X71.36 Y36.945 E.02057
G1 X71.24 Y37.203 E.01914
G1 X79.841 Y45.804 E.81818
G1 X80.883 Y47.609 E.14019
G1 X70.937 Y37.663 E.94612
G1 X70.665 Y37.952 E.02669
G1 X70.554 Y38.043 E.00965
G1 X81.925 Y49.413 E1.08163
G1 X82.966 Y51.218 E.14016
G1 X70.094 Y38.346 E1.22446
G1 X69.99 Y38.4 E.00788
G1 X69.544 Y38.559 E.03185
G1 X84.008 Y53.022 E1.37585
G1 X85.05 Y54.827 E.14019
G1 X68.604 Y38.381 E1.56444
G1 E-.7 F5400
;WIPE_START
G1 F9600
G1 X69.001 Y38.778 E-.3
;WIPE_END
G1 X64.069 Y34.609 F12000
G1 E1 F5400
G1 F1800
G1 X66.343 Y36.883 E.21632
G1 X66.607 Y37.419 E.04019
G1 X66.808 Y37.691 E.02275
G1 X66.975 Y37.872 E.01657
G1 X67.227 Y38.092 E.0225
G1 X67.43 Y38.233 E.01663
G1 X67.842 Y38.45 E.03132
G1 X67.94 Y38.479 E.00687
G1 X86.092 Y56.631 E1.72672
G1 X86.464 Y57.335 E.05356
G1 X86.641 Y57.808 E.03397
G1 X86.687 Y57.989 E.01256
G1 X63.967 Y35.269 E2.16125
G1 X63.687 Y35.752 E.03755
G1 X86.837 Y58.902 E2.20216
G1 X86.848 Y59.303 E.02698
G1 X86.82 Y59.647 E.02322
G1 X63.408 Y36.236 E2.22703
G1 X63.129 Y36.719 E.03752
G1 X83.013 Y56.603 E1.89148
G1 X83.444 Y56.767 E.03102
G1 X83.66 Y56.885 E.01656
G1 X83.934 Y57.077 E.0225
G1 X84.12 Y57.239 E.01659
G1 X84.384 Y57.527 E.02628
G1 X84.677 Y57.994 E.03708
G1 X84.832 Y58.422 E.03062
G1 X86.71 Y60.3 E.17865
G1 X86.52 Y60.873 E.04061
G1 X84.943 Y59.296 E.15001
G1 X84.914 Y59.597 E.02034
G1 X84.827 Y59.942 E.02393
G1 X86.274 Y61.389 E.13765
G1 X86.103 Y61.685 E.02299
G1 X85.978 Y61.856 E.01425
G1 X84.599 Y60.478 E.13113
G1 X84.352 Y60.868 E.03105
G1 X84.29 Y60.931 E.00595
G1 X85.635 Y62.276 E.12794
G1 X85.245 Y62.649 E.0363
G1 X83.895 Y61.299 E.12842
G1 X83.513 Y61.556 E.03097
G1 X83.425 Y61.591 E.00637
G1 X84.814 Y62.98 E.13213
G1 X84.666 Y63.084 E.01217
G1 X84.334 Y63.263 E.02537
G1 X82.859 Y61.788 E.14031
G1 X82.432 Y61.859 E.02912
G1 X82.159 Y61.851 E.01837
G1 X83.988 Y63.679 E.17394
G1 E-.7 F5400
;WIPE_START
G1 F9600
G1 X83.591 Y63.282 E-.3
;WIPE_END
G1 X82.387 Y56.74 F12000
G1 E1 F5400
G1 F1800
G1 X62.85 Y37.203 E1.85847
G1 X62.571 Y37.686 E.03752
M73 P3 R24
G1 X81.497 Y56.613 E1.80039
G1 X81.124 Y56.748 E.02668
G1 X80.962 Y56.84 E.01253
G1 X62.292 Y38.17 E1.776
G1 X62.013 Y38.653 E.03752
G1 X80.516 Y57.157 E1.76016
G1 X80.282 Y57.362 E.02093
G1 X80.145 Y57.549 E.01559
G1 X61.733 Y39.137 E1.75145
G1 X61.454 Y39.62 E.03752
G1 X79.852 Y58.018 E1.75012
G1 X79.729 Y58.285 E.01977
G1 X79.658 Y58.587 E.02087
G1 X61.175 Y40.104 E1.75821
G1 X60.896 Y40.587 E.03752
M73 P3 R23
G1 X79.852 Y59.544 E1.80325
G1 E-.7 F5400
;WIPE_START
G1 F9600
G1 X79.455 Y59.147 E-.3
;WIPE_END
G1 X83.408 Y63.862 F12000
G1 E1 F5400
G1 F1800
G1 X60.617 Y41.071 E2.16801
G1 X60.338 Y41.554 E.03752
G1 X82.531 Y63.748 E2.11117
G1 X81.785 Y63.764 E.05019
G1 X60.058 Y42.038 E2.06675
G1 X59.779 Y42.522 E.03758
G1 X81.022 Y63.764 E2.02071
G1 X80.26 Y63.764 E.05126
G1 X59.5 Y43.005 E1.97476
G1 X59.221 Y43.489 E.03758
G1 X79.497 Y63.764 E1.92872
G1 X78.734 Y63.764 E.05132
G1 X58.942 Y43.972 E1.88273
